apps/landing-page/public/backgrounds/static/indexSection4.svg

<svg id="evq8jM1m7eG1" xmlns="http://www.w3.org/2000/svg" xmlns:xlink="http://www.w3.org/1999/xlink" viewBox="0 0 1600 1028" shape-rendering="geometricPrecision" text-rendering="geometricPrecision" style="background-color:#21064e"><defs><linearGradient id="evq8jM1m7eG13-stroke" x1="261" y1="490" x2="178" y2="623" spreadMethod="pad" gradientUnits="userSpaceOnUse" gradientTransform="translate(0 0)"><stop id="evq8jM1m7eG13-stroke-0" offset="0%" stop-color="#9b6aff"/><stop id="evq8jM1m7eG13-stroke-1" offset="6.66667%" stop-color="rgba(155,106,255,0.991353)"/><stop id="evq8jM1m7eG13-stroke-2" offset="13.3333%" stop-color="rgba(155,106,255,0.96449)"/><stop id="evq8jM1m7eG13-stroke-3" offset="20%" stop-color="rgba(155,106,255,0.91834)"/><stop id="evq8jM1m7eG13-stroke-4" offset="26.6667%" stop-color="rgba(155,106,255,0.852589)"/><stop id="evq8jM1m7eG13-stroke-5" offset="33.3333%" stop-color="rgba(155,106,255,0.768225)"/><stop id="evq8jM1m7eG13-stroke-6" offset="40%" stop-color="rgba(155,106,255,0.668116)"/><stop id="evq8jM1m7eG13-stroke-7" offset="46.6667%" stop-color="rgba(155,106,255,0.557309)"/><stop id="evq8jM1m7eG13-stroke-8" offset="53.3333%" stop-color="rgba(155,106,255,0.442691)"/><stop id="evq8jM1m7eG13-stroke-9" offset="60%" stop-color="rgba(155,106,255,0.331884)"/><stop id="evq8jM1m7eG13-stroke-10" offset="66.6667%" stop-color="rgba(155,106,255,0.231775)"/><stop id="evq8jM1m7eG13-stroke-11" offset="73.3333%" stop-color="rgba(155,106,255,0.147411)"/><stop id="evq8jM1m7eG13-stroke-12" offset="80%" stop-color="rgba(155,106,255,0.0816599)"/><stop id="evq8jM1m7eG13-stroke-13" offset="86.6667%" stop-color="rgba(155,106,255,0.03551)"/><stop id="evq8jM1m7eG13-stroke-14" offset="93.3333%" stop-color="rgba(155,106,255,0.01)"/><stop id="evq8jM1m7eG13-stroke-15" offset="100%" stop-color="rgba(155,106,255,0)"/></linearGradient><linearGradient id="evq8jM1m7eG16-stroke" x1="890" y1="320" x2="732" y2="292" spreadMethod="pad" gradientUnits="userSpaceOnUse" gradientTransform="translate(0 0)"><stop id="evq8jM1m7eG16-stroke-0" offset="0%" stop-color="#9b6aff"/><stop id="evq8jM1m7eG16-stroke-1" offset="6.66667%" stop-color="rgba(155,106,255,0.991353)"/><stop id="evq8jM1m7eG16-stroke-2" offset="13.3333%" stop-color="rgba(155,106,255,0.96449)"/><stop id="evq8jM1m7eG16-stroke-3" offset="20%" stop-color="rgba(155,106,255,0.91834)"/><stop id="evq8jM1m7eG16-stroke-4" offset="26.6667%" stop-color="rgba(155,106,255,0.852589)"/><stop id="evq8jM1m7eG16-stroke-5" offset="33.3333%" stop-color="rgba(155,106,255,0.768225)"/><stop id="evq8jM1m7eG16-stroke-6" offset="40%" stop-color="rgba(155,106,255,0.668116)"/><stop id="evq8jM1m7eG16-stroke-7" offset="46.6667%" stop-color="rgba(155,106,255,0.557309)"/><stop id="evq8jM1m7eG16-stroke-8" offset="53.3333%" stop-color="rgba(155,106,255,0.442691)"/><stop id="evq8jM1m7eG16-stroke-9" offset="60%" stop-color="rgba(155,106,255,0.331884)"/><stop id="evq8jM1m7eG16-stroke-10" offset="66.6667%" stop-color="rgba(155,106,255,0.231775)"/><stop id="evq8jM1m7eG16-stroke-11" offset="73.3333%" stop-color="rgba(155,106,255,0.147411)"/><stop id="evq8jM1m7eG16-stroke-12" offset="80%" stop-color="rgba(155,106,255,0.0816599)"/><stop id="evq8jM1m7eG16-stroke-13" offset="86.6667%" stop-color="rgba(155,106,255,0.03551)"/><stop id="evq8jM1m7eG16-stroke-14" offset="93.3333%" stop-color="rgba(155,106,255,0.01)"/><stop id="evq8jM1m7eG16-stroke-15" offset="100%" stop-color="rgba(155,106,255,0)"/></linearGradient></defs><g transform="matrix(1.112553 0 0 1.112553 0.108055-.445584)"><path d="M719.5,54C238.184,54,-152,443.96,-152,925h1743c0-481.04-390.18-871.0001-871.5-871Z" transform="translate(0 1.199097)" fill="#270a5b"/><path d="M720,205C322.355,205,0.000087,527.355,0.000122,925L1440,925c0-397.645-322.36-720-720-720Z" transform="translate(-.336547 1.199125)" fill="#4c249f"/><path d="M720,205C322.355,205,0.000087,527.355,0.000122,925L1440,925c0-397.645-322.36-720-720-720Z" transform="translate(-2.727211 2.17563)" fill="#4c249f" stroke-dashoffset="50"/><path d="M720,385c-298.234,0-540,241.766-540,540h1080c0-298.234-241.77-540-540-540Z" fill="#8050e3"/><path d="M449,418.339c-29.272,15.631-57.031,33.726-83,54.006M831,361.921c70.897,14.023,137.1,41.101,196,78.626" fill="none" stroke="#fff" stroke-width="2"/><path d="M1112,364.4c14.42,10.1,28.43,20.742,42,31.897c32.22,26.478,61.98,55.845,88.87,87.703M664.001,243.259c-51.85,4.202-102.065,14.186-150,29.306M202.254,478c-35.457,41.031-66.118,86.322-91.112,135M1370.19,712c12.22,37.353,21.32,76.123,26.99,116" fill="none" stroke="#fff" stroke-width="2"/><circle r="8" transform="matrix(0 1-1 0 222 541)" fill="#ffb636"/><path d="M-2,905v0c51.9148,0,93.2156-42.359,101.3998-93.624C145.91,520.037,406.051,297,720,297c314.66,0,575.27,224.046,620.91,516.351C1348.75,863.553,1389.19,905,1440,905v0" fill="none" stroke="#21064e" stroke-width="40"/><g transform="matrix(.260693 0.861271-.92137 0.278884 1327.623336-24.665425)"><path d="M261.039,490c-42.27173,49.366613-58.186914,84.663218-58.186914,84.663218" transform="translate(-.557753 0.808276)" fill="none" stroke="url(#evq8jM1m7eG13-stroke)" stroke-width="16" stroke-opacity="0.46"/><circle r="8" transform="matrix(0 1-1 0 260.218722 490.378564)" fill="#35f0d0"/></g><g transform="matrix(.793541-.608517 0.608517 0.793541-507.23838 678.165809)"><path d="M774.69498,312.582767c40.418387-4.229705,69.618853-4.286904,116.86965,3.244068" transform="translate(.289994 1.248802)" fill="none" stroke="url(#evq8jM1m7eG16-stroke)" stroke-width="16" stroke-opacity="0.46"/><circle r="7.622462" transform="matrix(0 1.002312-1.002312 0 891.421833 317.508428)" fill="#ffb636"/></g><path d="M240.116014,441.365834q59.978764-58.012163,130.513305-97.430362" transform="matrix(.944132-.329567 0.329567 0.944132-261.018816 275.426559)" fill="none" stroke="#fff" stroke-width="2"/><path d="M240.116014,441.365834q59.978764-58.012163,130.513305-97.430362" transform="matrix(.905188 0.425011-.425011 0.905188 479.002117-226.297581)" fill="none" stroke="#fff" stroke-width="2"/></g></svg>

<svg width="1440" height="925" viewBox="0 0 1440 925" fill="none" xmlns="http://www.w3.org/2000/svg">
<path d="M719.5 54C238.184 54 -152 443.96 -152 925L1591 925C1591 443.96 1200.82 53.9999 719.5 54Z" fill="#270A5B"/>
<path d="M720 205C322.355 205 8.73071e-05 527.355 0.00012207 925L1440 925C1440 527.355 1117.64 205 720 205Z" fill="#4C249F"/>
<path d="M720 385C421.766 385 180 626.766 180 925L1260 925C1260 626.766 1018.23 385 720 385Z" fill="#8050E3"/>
<path d="M449 418.339C419.728 433.97 391.969 452.065 366 472.345M831 361.921C901.897 375.944 968.1 403.022 1027 440.547" stroke="white" stroke-width="2"/>
<path d="M1112 364.4C1126.42 374.5 1140.43 385.142 1154 396.297C1186.22 422.775 1215.98 452.142 1242.87 484M664.001 243.259C612.151 247.461 561.936 257.445 514.001 272.565M202.254 478C166.797 519.031 136.136 564.322 111.142 613M1370.19 712C1382.41 749.353 1391.51 788.123 1397.18 828" stroke="white" stroke-width="2"/>
<circle cx="222" cy="541" r="8" transform="rotate(90 222 541)" fill="#FFB636"/>
<path d="M-2 905V905C49.9148 905 91.2156 862.641 99.3998 811.376C145.91 520.037 406.051 297 720 297C1034.66 297 1295.27 521.046 1340.91 813.351C1348.75 863.553 1389.19 905 1440 905V905" stroke="#21064E" stroke-width="40"/>
<path d="M261.039 490C222.834 529.587 190.03 574.12 163.761 622.5" stroke="url(#paint0_linear_3635_34201)" stroke-opacity="0.46" stroke-width="16"/>
<circle cx="261" cy="490" r="8" transform="rotate(90 261 490)" fill="#35F0D0"/>
<path d="M720 297C779.095 297 836.284 304.902 890.5 319.675" stroke="url(#paint1_linear_3635_34201)" stroke-opacity="0.46" stroke-width="16"/>
<circle cx="890" cy="319" r="8" transform="rotate(90 890 319)" fill="#FFB636"/>
<path d="M1321.91 731C1303.16 670.119 1274.82 613.239 1238.6 562" stroke="url(#paint2_linear_3635_34201)" stroke-opacity="0.46" stroke-width="16"/>
<circle cx="1323" cy="731" r="8" transform="rotate(90 1323 731)" fill="#9B6AFF"/>
<defs>
<linearGradient id="paint0_linear_3635_34201" x1="261" y1="490" x2="178" y2="623" gradientUnits="userSpaceOnUse">
<stop stop-color="#9B6AFF"/>
<stop offset="0.0666667" stop-color="#9B6AFF" stop-opacity="0.991353"/>
<stop offset="0.133333" stop-color="#9B6AFF" stop-opacity="0.96449"/>
<stop offset="0.2" stop-color="#9B6AFF" stop-opacity="0.91834"/>
<stop offset="0.266667" stop-color="#9B6AFF" stop-opacity="0.852589"/>
<stop offset="0.333333" stop-color="#9B6AFF" stop-opacity="0.768225"/>
<stop offset="0.4" stop-color="#9B6AFF" stop-opacity="0.668116"/>
<stop offset="0.466667" stop-color="#9B6AFF" stop-opacity="0.557309"/>
<stop offset="0.533333" stop-color="#9B6AFF" stop-opacity="0.442691"/>
<stop offset="0.6" stop-color="#9B6AFF" stop-opacity="0.331884"/>
<stop offset="0.666667" stop-color="#9B6AFF" stop-opacity="0.231775"/>
<stop offset="0.733333" stop-color="#9B6AFF" stop-opacity="0.147411"/>
<stop offset="0.8" stop-color="#9B6AFF" stop-opacity="0.0816599"/>
<stop offset="0.866667" stop-color="#9B6AFF" stop-opacity="0.03551"/>
<stop offset="0.933333" stop-color="#9B6AFF" stop-opacity="0.01"/>
<stop offset="1" stop-color="#9B6AFF" stop-opacity="0"/>
</linearGradient>
<linearGradient id="paint1_linear_3635_34201" x1="890" y1="320" x2="732" y2="292" gradientUnits="userSpaceOnUse">
<stop stop-color="#9B6AFF"/>
<stop offset="0.0666667" stop-color="#9B6AFF" stop-opacity="0.991353"/>
<stop offset="0.133333" stop-color="#9B6AFF" stop-opacity="0.96449"/>
<stop offset="0.2" stop-color="#9B6AFF" stop-opacity="0.91834"/>
<stop offset="0.266667" stop-color="#9B6AFF" stop-opacity="0.852589"/>
<stop offset="0.333333" stop-color="#9B6AFF" stop-opacity="0.768225"/>
<stop offset="0.4" stop-color="#9B6AFF" stop-opacity="0.668116"/>
<stop offset="0.466667" stop-color="#9B6AFF" stop-opacity="0.557309"/>
<stop offset="0.533333" stop-color="#9B6AFF" stop-opacity="0.442691"/>
<stop offset="0.6" stop-color="#9B6AFF" stop-opacity="0.331884"/>
<stop offset="0.666667" stop-color="#9B6AFF" stop-opacity="0.231775"/>
<stop offset="0.733333" stop-color="#9B6AFF" stop-opacity="0.147411"/>
<stop offset="0.8" stop-color="#9B6AFF" stop-opacity="0.0816599"/>
<stop offset="0.866667" stop-color="#9B6AFF" stop-opacity="0.03551"/>
<stop offset="0.933333" stop-color="#9B6AFF" stop-opacity="0.01"/>
<stop offset="1" stop-color="#9B6AFF" stop-opacity="0"/>
</linearGradient>
<linearGradient id="paint2_linear_3635_34201" x1="1327" y1="731" x2="1239" y2="562" gradientUnits="userSpaceOnUse">
<stop stop-color="#9B6AFF"/>
<stop offset="0.0666667" stop-color="#9B6AFF" stop-opacity="0.991353"/>
<stop offset="0.133333" stop-color="#9B6AFF" stop-opacity="0.96449"/>
<stop offset="0.2" stop-color="#9B6AFF" stop-opacity="0.91834"/>
<stop offset="0.266667" stop-color="#9B6AFF" stop-opacity="0.852589"/>
<stop offset="0.333333" stop-color="#9B6AFF" stop-opacity="0.768225"/>
<stop offset="0.4" stop-color="#9B6AFF" stop-opacity="0.668116"/>
<stop offset="0.466667" stop-color="#9B6AFF" stop-opacity="0.557309"/>
<stop offset="0.533333" stop-color="#9B6AFF" stop-opacity="0.442691"/>
<stop offset="0.6" stop-color="#9B6AFF" stop-opacity="0.331884"/>
<stop offset="0.666667" stop-color="#9B6AFF" stop-opacity="0.231775"/>
<stop offset="0.733333" stop-color="#9B6AFF" stop-opacity="0.147411"/>
<stop offset="0.8" stop-color="#9B6AFF" stop-opacity="0.0816599"/>
<stop offset="0.866667" stop-color="#9B6AFF" stop-opacity="0.03551"/>
<stop offset="0.933333" stop-color="#9B6AFF" stop-opacity="0.01"/>
<stop offset="1" stop-color="#9B6AFF" stop-opacity="0"/>
</linearGradient>
</defs>
</svg>
